icons/line/file-search.svg

<svg width="24" height="24" viewBox="0 0 24 24" fill="none" xmlns="http://www.w3.org/2000/svg">
<path fill-rule="evenodd" clip-rule="evenodd" d="M6 22C4.34315 22 3 20.6569 3 19V5C3 3.34315 4.34315 2 6 2H14H14.1716C14.9672 2 15.7303 2.31607 16.2929 2.87868L20.1213 6.70711C20.6839 7.26972 21 8.03278 21 8.82843V9V19C21 20.6569 19.6569 22 18 22H6ZM5 19C5 19.5523 5.44772 20 6 20H18C18.5523 20 19 19.5523 19 19V10H16C14.3431 10 13 8.65685 13 7V4H6C5.44772 4 5 4.44772 5 5V19ZM16 8H18.5858L15 4.41421V7C15 7.55229 15.4477 8 16 8ZM10 14.5C10 13.6716 10.6716 13 11.5 13C12.3284 13 13 13.6716 13 14.5C13 14.9145 12.8332 15.2881 12.5607 15.5607C12.2881 15.8332 11.9145 16 11.5 16C10.6716 16 10 15.3284 10 14.5ZM11.5 11C9.567 11 8 12.567 8 14.5C8 16.433 9.567 18 11.5 18C12.1024 18 12.6698 17.8473 13.1649 17.5791L14.2929 18.7071C14.6834 19.0976 15.3166 19.0976 15.7071 18.7071C16.0976 18.3166 16.0976 17.6834 15.7071 17.2929L14.5791 16.1649C14.8473 15.6698 15 15.1024 15 14.5C15 12.567 13.433 11 11.5 11Z" fill="currentColor"/>
</svg>

<svg width="24" height="24" fill="none" xmlns="http://www.w3.org/2000/svg"><path fill-rule="evenodd" clip-rule="evenodd" d="M6 22a3 3 0 01-3-3V5a3 3 0 013-3h8.172a3 3 0 012.12.879l3.83 3.828A3 3 0 0121 8.828V19a3 3 0 01-3 3H6zm-1-3a1 1 0 001 1h12a1 1 0 001-1v-9h-3a3 3 0 01-3-3V4H6a1 1 0 00-1 1v14zM16 8h2.586L15 4.414V7a1 1 0 001 1zm-6 6.5a1.5 1.5 0 113 0 1.5 1.5 0 01-3 0zm1.5-3.5a3.5 3.5 0 101.665 6.58l1.128 1.127a1 1 0 001.414-1.414l-1.128-1.128A3.5 3.5 0 0011.5 11z" fill="currentColor"/></svg>
